X:18600
T:West Cork Reel, The
R:reel
D:Tommy Keane & Jacqueline McCarthy: The Wind among the Reeds
Z:hn-reel-682
M:C|
K:G
Bcde fddc|dggf ~g3a|b2ag fdde|1 fdcA ~G3A:|2 fdcA G2ga||
bgag fdda|bgaf ~g3a|bgag fdde|fdcA G2ga|
bgag fdda|bgab c'2ba|bgag fdde|fdcA ~G3A||


